X:1
T:If You Will
T:If You Will
T:Charles Hutchinson Gabriel
T:Mary Winboro’ Ploughe, 1906
T:Public Domain Courtesy of the Cyber Hymnal™
T:Public Domain Courtesy of the Cyber Hymnal™
C:Charles Hutchinson Gabriel
Z:Public Domain
Z:Courtesy of the Cyber Hymnal™
%%score ( 1 2 ) ( 3 4 )
L:1/8
Q:1/4=88
M:6/8
K:Eb
V:1 treble 
V:2 treble 
V:3 bass 
V:4 bass 
V:1
 E/[EF]/ | [EG]>[EG][EG] [EG][E^F][EG] | [EB]3 [EB]2 [EB]/[Ed]/ | [Ec][EB][EG] [EB][DA][EG] | %4
w: 1.~When the|na- tions be- fore Him are|ga- thered, When the|sea shall sur- ren- der its|
w: 2.~You may|stand be- fore Him, if you|want to, In your|man- tle of shame and of|
w: 3.~You may|stand in that day, if you|want to, His own|child by the blood of His|
 [DF]3- [DF]2 [DF]/[EG]/ | [FA]>[FA][FA] [FA][=EG][FA] | [Ac]3 [Ac]2 [Ac]/[ce]/ | %7
w: dead, * When the|trum- pet’s last blast shall have|sound- ed, And the|
w: sin; * You may|hear Him dis- own and de-|ny you, When you|
w: Son; * You may|hear from the lips that have|called you, “En- ter|
 [Bd][Ac][GB] [Ac][GB][FA] | [EG]3- [EG]2 [GB]/[GB]/ | [Ge]>[Ae][Be] [Ae][Ad][Ac] | %10
w: books shall be o- pened and|read— * When the|earth and the stars in their|
w: see the re- deemed en- ter|in; * You may|join with the lost in their|
w: in- to thy joys, bless- èd|one!” * You may|sweep thro’ the gates of that|
 [GB]3 [GB]2 [GB]/[GB]/ | [Ac]>[Ac][Ac] [=Ac][Ad][Ae] | [Ad]3- [Ad]2 [Ac]/[Ad]/ | [Ge]>[Ae][Be] | %14
w: trem- bling, From the|face of their mak- er shall|flee— * When the|day of pro-|
w: sor- row, When you|find there is no mer- cy|still, * And be|cast from His|
w: ci- ty, Heav- en’s|rap- ture your spir- it may|thrill; * Your home-|com- ing by|
 [Ae][Ad][Ac] | [GB]3 [GB]2 [EG]/[EG]/ | [GB]>[GB][EB] [DB][DA][DF] | E3- E2 |] %18
w: ba- tion is|end- ed, Care- less|soul, is it noth- ing to|thee? *|
w: pre- sence for-|ev- er— You may|do all these things if you|will. *|
w: an- gels at-|tend- ed— All these|joys may be yours if you|will. *|
V:2
 E/ x/ | x6 | x6 | x6 | x6 | x6 | x6 | x6 | x6 | x6 | x6 | x6 | x6 | x3 | x3 | x6 | x6 | E3- E2 |] %18
V:3
 [E,G,]/[E,A,]/ | [E,B,]>[E,B,][E,B,] [E,B,][E,=A,][E,B,] | [E,G,]3 [E,G,]2 [E,G,]/[E,B,]/ | %3
 [E,A,][E,G,][E,B,] [G,B,][F,B,][E,B,] | [B,,B,]3- [B,,B,]2 [B,,B,]/[B,,B,]/ | %5
 [B,,B,]>[B,,B,][B,,B,] [B,,B,][B,,B,][B,,B,] | [B,,D]3 [B,,D]2 [B,,D]/[B,,B,]/ | %7
 [B,,B,][B,,B,][B,,B,] [B,,B,][B,,B,][B,,B,] | [E,B,]3- [E,B,]2 [E,E]/[E,E]/ | %9
 [E,B,]>[F,B,][G,E] [A,C][A,C][A,E] | [E,E]3 [E,E]2 [E,E]/[E,E]/ | %11
 [A,E]>[A,E][A,E] [F,E][F,D][F,C] | B,3- B,2 B,/B,/ | [E,B,]>[F,B,][G,E] | [A,C][A,C][A,E] | %15
 [E,E]3 [E,E]2 [E,B,]/[E,B,]/ | [B,,E]>[B,,B,][B,,G,] [B,,F,][B,,F,][B,,A,] | [E,G,]3- [E,G,]2 |] %18
V:4
 x | x6 | x6 | x6 | x6 | x6 | x6 | x6 | x6 | x6 | x6 | x6 | B,3- B,2 B,/B,/ | x3 | x3 | x6 | x6 | %17
 x5 |] %18

